assets/lut/basic.cube
TITLE "Generated by Resolve"
LUT_3D_SIZE 33
0.00750744 0.00776684 0.00888075
0.0191501 0.00674449 0.00790417
0.034699 0.00540169 0.00662242
0.052079 0.00386053 0.00517281
0.0713664 0.00222782 0.00354009
0.0922408 0.000549325 0.00173953
0.113649 0 0
0.136065 0 0
0.160967 0 0
0.187671 0 0
0.214786 0 0
0.243839 0 0
0.276585 0 0
0.310842 0 0
0.34583 0 0
0.384146 0 0
0.425635 0 0
0.468223 0 0
0.509682 0 0
0.550607 0 0
0.591531 0 0
0.630655 0 0
0.667475 0 0
0.703136 0 0
0.737713 0 0
0.771176 0 0
0.803769 0 0
0.83595 0 0
0.867643 0 0
0.899092 0 0
0.929976 0 0
0.960174 0 0
0.9906 0 0
0.00535592 0.0185397 0.0069276
0.0180056 0.0185245 0.00695811
0.0342107 0.017792 0.00630198
0.052079 0.0167086 0.0053254
0.0718242 0.0154574 0.00408942
0.0931258 0.0140993 0.00260929
0.114794 0.0126802 0.000991836
0.137621 0.0112154 0
0.162982 0.00975052 0
0.189929 0.00860609 0
0.217273 0.00773632 0
0.246891 0.00662242 0
0.28014 0.00523384 0
0.314595 0.00383001 0
0.34995 0.00199893 0
0.388983 0 0
0.431006 0 0
0.473533 0 0
0.515114 0 0
0.556237 0 0
0.597086 0 0
0.63595 0 0
0.67274 0 0
0.708293 0 0
0.742855 0 0
0.77615 0 0
0.808774 0 0
0.841001 0 0
0.872633 0 0
0.904189 0 0
0.93489 0 0
0.965194 0 0
0.995712 0 0
0.00248722 0.032929 0.0043183
0.0154879 0.0332952 0.00471504
0.0320287 0.0328985 0.0043946
0.0502022 0.0321508 0.0037232
0.0701762 0.0311589 0.00276188
0.0917525 0.030045 0.00154116
0.113741 0.0288853 0.00015259
0.136797 0.0276341 0
0.162493 0.0263981 0
0.189807 0.0254368 0
0.217395 0.0247349 0
0.247288 0.0238041 0
0.280812 0.0225071 0
0.315511 0.0211337 0
0.351049 0.0193637 0
0.390219 0.0174258 0
0.432303 0.0142214 0
0.474983 0.00958267 0
0.516609 0 0
0.557946 0 0
0.598871 0 0
0.637675 0 0
0.674586 0 0
0.710262 0 0
0.744762 0 0
0.778164 0 0
0.810849 0 0
0.843137 0 0
0.8748 0 0
0.906462 0 0
0.937118 0 0
0.967514 0 0
0.998123 0 0
0 0.0489815 0.00137331
0.0125429 0.0495918 0.00198367
0.0293278 0.0494392 0.00190738
0.0477302 0.0489204 0.00144961
0.0678569 0.0481422 0.000701915
0.0895857 0.0472267 0
0.11191 0.0462654 0
0.135073 0.0452277 0
0.160937 0.0441749 0
0.188632 0.0434119 0
0.216526 0.0429084 0
0.246632 0.0422675 0
0.280507 0.0411688 0
0.315709 0.039826 0
0.351843 0.0381933 0
0.39144 0.0365148 0
0.43389 0.0336004 0
0.47686 0.0292363 0
0.518395 0.0198672 0
0.55967 0.0123293 0
0.600519 0.00976577 0
0.639078 0.00743114 0
0.675669 0.005066 0
0.711147 0.00265507 0
0.745403 0.000198367 0
0.778836 0 0
0.811612 0 0
0.843976 0 0
0.875715 0 0
0.907485 0 0
0.93817 0 0
0.968643 0 0
0.999329 0 0
0 0.0665751 0
0.00910964 0.0673991 0
0.0261692 0.0674449 0
0.0447852 0.0670787 0
0.0650034 0.066453 0
0.0868544 0.0656748 0
0.109499 0.0648203 0
0.132723 0.0639353 0
0.158663 0.063035 0
0.186816 0.0623789 0
0.214969 0.0619821 0
0.245136 0.0614786 0
0.279316 0.0604562 0
0.314931 0.059205 0
0.351614 0.0577707 0
0.391455 0.05626 0
0.434302 0.0536049 0
0.477684 0.0496681 0
0.519799 0.0419165 0
0.561196 0.0325475 0
0.602304 0.0295415 0
0.641215 0.0272984 0
0.677913 0.0250248 0
0.71339 0.0227054 0
0.747662 0.0203403 0
0.780835 0.0179599 0
0.813306 0.0155337 0
0.845396 0.0130617 0
0.876921 0.0105745 0
0.908476 0.0080415 0
0.938933 0.00549325 0
0.969223 0.00289921 0
0.999741 0.000289921 0
0 0.085481 0
0.00508125 0.0864729 0
0.0225071 0.0866865 0
0.0414588 0.0864881 0
0.061738 0.0859998 0
0.0836652 0.0853285 0
0.10663 0.084596 0
0.129854 0.0838483 0
0.15584 0.0830701 0
0.184543 0.0825513 0
0.213001 0.0822614 0
0.243015 0.0818189 0
0.277394 0.0809339 0
0.31368 0.0798352 0
0.350744 0.078645 0
0.390768 0.0772106 0
0.434058 0.0747387 0
0.477943 0.0711681 0
0.520333 0.0649119 0
0.562066 0.0538186 0
0.603479 0.0499733 0
0.642588 0.0478065 0
0.679454 0.0456245 0
0.715007 0.0433967 0
0.749355 0.0411231 0
0.782513 0.038819 0
0.814969 0.0364691 0
0.847105 0.0340887 0
0.878645 0.0316625 0
0.910216 0.029221 0
0.940764 0.0267338 0
0.971145 0.0242313 0
1 0.0216831 0
0 0.105409 0
0.000701915 0.106538 0
0.0184329 0.106874 0
0.0379034 0.106828 0
0.0582132 0.106493 0
0.0802167 0.105974 0
0.103471 0.105379 0
0.126635 0.104799 0
0.15256 0.104234 0
0.181857 0.103853 0
0.210575 0.103578 0
0.240635 0.103304 0
0.275105 0.102571 0
0.311925 0.10164 0
0.349615 0.100786 0
0.389838 0.0996414 0
0.433265 0.0974289 0
0.47776 0.0942702 0
0.520684 0.0893873 0
0.562402 0.0781109 0
0.604074 0.0710307 0
0.64358 0.0689097 0
0.680552 0.066804 0
0.716136 0.0646525 0
0.750591 0.0624552 0
0.783795 0.0602274 0
0.816236 0.0579538 0
0.848356 0.0556497 0
0.879927 0.0532998 0
0.911498 0.0509194 0
0.942168 0.0485237 0
0.97261 0.0460822 0
1 0.0436103 0
0 0.12578 0
0 0.127092 0
0.014313 0.127535 0
0.0342412 0.127596 0
0.0546273 0.127352 0
0.0767529 0.12694 0
0.100313 0.126421 0
0.123476 0.125948 0
0.14931 0.125597 0
0.178882 0.125261 0
0.20795 0.125109 0
0.237903 0.125063 0
0.27245 0.12459 0
0.309911 0.123919 0
0.347951 0.1234 0
0.388617 0.122713 0
0.432319 0.121004 0
0.477302 0.118364 0
0.520745 0.114549 0
0.56289 0.107347 0
0.604379 0.0942397 0
0.644221 0.0905318 0
0.681361 0.0884871 0
0.717083 0.0864118 0
0.751568 0.0842908 0
0.784802 0.0821241 0
0.817258 0.0799268 0
0.849363 0.0776989 0
0.880995 0.0754253 0
0.912566 0.0731212 0
0.943297 0.0707713 0
0.973785 0.0684062 0
1 0.0659953 0
0 0.147494 0
0 0.148913 0
0.00856031 0.149462 0
0.0290074 0.149645 0
0.0499275 0.149508 0
0.072755 0.149203 0
0.0967117 0.148898 0
0.120256 0.148531 0
0.145739 0.14815 0
0.175235 0.147845 0
0.205051 0.147799 0
0.234882 0.147906 0
0.269459 0.147646 0
0.307561 0.147204 0
0.346105 0.146792 0
0.386908 0.146258 0
0.430915 0.144976 0
0.476646 0.142885 0
0.52079 0.139651 0
0.563104 0.134371 0
0.604715 0.123903 0
0.64477 0.112596 0
0.682155 0.110643 0
0.717861 0.108629 0
0.752392 0.106584 0
0.785733 0.104494 0
0.818219 0.102373 0
0.850355 0.100191 0
0.881987 0.0979934 0
0.913542 0.0957504 0
0.944381 0.0934768 0
0.974929 0.0911574 0
1 0.0888228 0
0 0.171252 0
0 0.1729 0
0.000839246 0.173556 0
0.0206302 0.173846 0
0.041474 0.173831 0
0.0643626 0.173571 0
0.0903792 0.173297 0
0.115343 0.173037 0
0.140993 0.172747 0
0.170871 0.172519 0
0.201404 0.172519 0
0.231647 0.172763 0
0.266178 0.172702 0
0.304784 0.172381 0
0.343938 0.172091 0
0.385229 0.171832 0
0.429648 0.170932 0
0.475761 0.169284 0
0.520607 0.166705 0
0.563363 0.1626 0
0.60531 0.156497 0
0.64535 0.144472 0
0.68278 0.136919 0
0.718425 0.133577 0
0.753017 0.130129 0
0.786557 0.127459 0
0.819089 0.126055 0
0.851255 0.124208 0
0.882979 0.122179 0
0.914565 0.11986 0
0.945571 0.117266 0
0.976135 0.114519 0
1 0.112047 0
0 0.195789 0
0 0.197574 0
0 0.198322 0
0.01561 0.198718 0
0.0360418 0.198749 0
0.0575418 0.198596 0
0.0816358 0.198413 0
0.107485 0.198215 0
0.134676 0.198047 0
0.165743 0.198016 0
0.197375 0.198199 0
0.228351 0.198611 0
0.262699 0.198871 0
0.301915 0.198856 0
0.341741 0.198962 0
0.383368 0.199222 0
0.428016 0.198978 0
0.474861 0.198047 0
0.52079 0.196399 0
0.563897 0.1935 0
0.605982 0.189273 0
0.646418 0.184482 0
0.684016 0.17847 0
0.719509 0.172045 0
0.753964 0.165469 0
0.787533 0.160433 0
0.820111 0.159274 0
0.852338 0.157321 0
0.884184 0.155276 0
0.915831 0.152712 0
0.946868 0.148852 0
0.977401 0.144411 0
1 0.1402 0
0 0.220752 0
0 0.222614 0
0 0.223468 0
0.0114595 0.223957 0
0.0318914 0.224109 0
0.0532692 0.224048 0
0.0756695 0.22388 0
0.0993057 0.223758 0
0.126146 0.223728 0
0.159411 0.223804 0
0.193194 0.224186 0
0.224704 0.224796 0
0.259403 0.225437 0
0.298894 0.225772 0
0.339254 0.226108 0
0.381399 0.226886 0
0.426444 0.227237 0
0.473976 0.226963 0
0.520714 0.226001 0
0.564523 0.224033 0
0.606973 0.220981 0
0.64773 0.217319 0
0.685908 0.213672 0
0.721462 0.209583 0
0.75584 0.205234 0
0.78941 0.201556 0
0.822065 0.199695 0
0.854292 0.198093 0
0.886275 0.197147 0
0.917967 0.196048 0
0.949157 0.193866 0
0.979675 0.190463 0
1 0.18703 0
0 0.24741 0
0 0.2495 0
0 0.250538 0
0.00724804 0.251118 0
0.0277562 0.251423 0
0.0492256 0.251484 0
0.0715038 0.251423 0
0.0944991 0.251377 0
0.118837 0.251408 0
0.149493 0.251499 0
0.187076 0.252033 0
0.220523 0.252811 0
0.255329 0.253651 0
0.295201 0.254261 0
0.336675 0.254917 0
0.379492 0.256138 0
0.424933 0.256916 0
0.472923 0.257008 0
0.520531 0.256519 0
0.56524 0.255222 0
0.608164 0.252705 0
0.649378 0.249561 0
0.687831 0.246387 0
0.723735 0.243275 0
0.758236 0.240314 0
0.791897 0.23801 0
0.824689 0.236316 0
0.857023 0.234943 0
0.889052 0.233799 0
0.920836 0.232868 0
0.952209 0.231052 0
0.982757 0.228016 0
1 0.224887 0
0 0.276356 0
0 0.278691 0
0 0.279866 0
0.00296025 0.280537 0
0.0235447 0.281086 0
0.0450752 0.281254 0
0.0674296 0.281315 0
0.0904707 0.281468 0
0.114153 0.281712 0
0.139895 0.282002 0
0.17612 0.28246 0
0.214176 0.283528 0
0.250065 0.284703 0
0.290837 0.28574 0
0.333745 0.287068 0
0.377356 0.288792 0
0.423346 0.289982 0
0.471839 0.290517 0
0.52047 0.290562 0
0.56611 0.289769 0
0.609613 0.287739 0
0.651194 0.284993 0
0.690059 0.282139 0
0.72639 0.279133 0
0.760998 0.276417 0
0.794766 0.274205 0
0.82771 0.272496 0
0.860044 0.271046 0
0.892149 0.269886 0
0.924071 0.269017 0
0.955657 0.267338 0
0.986221 0.264179 0
1 0.261036 0
0 0.306538 0
0 0.308949 0
0 0.310262 0
0 0.31104 0
0.0192264 0.311696 0
0.0408331 0.312032 0
0.0632486 0.312261 0
0.0863508 0.312566 0
0.110094 0.313008 0
0.134386 0.313497 0
0.162402 0.314153 0
0.204288 0.315465 0
0.24332 0.317174 0
0.285634 0.318944 0
0.330297 0.321035 0
0.375143 0.323461 0
0.421698 0.325368 0
0.470863 0.326543 0
0.520516 0.327291 0
0.567056 0.327092 0
0.611215 0.32578 0
0.653346 0.323568 0
0.692699 0.321187 0
0.729366 0.318563 0
0.764233 0.315923 0
0.798169 0.313802 0
0.831113 0.311925 0
0.863523 0.310353 0
0.895735 0.309163 0
0.927718 0.308141 0
0.959487 0.306523 0
0.990097 0.303243 0
1 0.300038 0
0 0.337346 0
0 0.33991 0
0 0.341299 0
0 0.342123 0
0.0148165 0.342855 0
0.0364843 0.34342 0
0.0589609 0.343816 0
0.0821393 0.344305 0
0.105943 0.34493 0
0.130297 0.345678 0
0.155306 0.346624 0
0.187625 0.34815 0
0.234226 0.350362 0
0.279149 0.352865 0
0.326207 0.35581 0
0.372503 0.358862 0
0.419867 0.361501 0
0.469917 0.363394 0
0.5205 0.364614 0
0.568093 0.364981 0
0.612924 0.364233 0
0.655833 0.362478 0
0.695735 0.360479 0
0.732799 0.35816 0
0.768032 0.355779 0
0.801999 0.353704 0
0.835065 0.352056 0
0.867521 0.350652 0
0.899794 0.349645 0
0.931838 0.348867 0
0.963806 0.347692 0
0.99443 0.344518 0
1 0.34136 0
0 0.369329 0
0 0.372045 0
0 0.373556 0
0 0.374502 0
0.0103151 0.375341 0
0.0320592 0.376104 0
0.0545968 0.376623 0
0.0778363 0.377295 0
0.101686 0.378119 0
0.126101 0.379171 0
0.151049 0.380545 0
0.176806 0.382284 0
0.21886 0.384924 0
0.271092 0.388357 0
0.320684 0.391989 0
0.368994 0.395743 0
0.417639 0.399191 0
0.468269 0.401709 0
0.520043 0.40351 0
0.56875 0.404395 0
0.61442 0.40415 0
0.658213 0.402838 0
0.698833 0.401022 0
0.736339 0.398962 0
0.771832 0.396567 0
0.806073 0.394491 0
0.839277 0.392828 0
0.871839 0.391501 0
0.904189 0.3906 0
0.936248 0.390021 0
0.968444 0.389395 0
0.999161 0.386374 0
1 0.3832 0
0 0.402777 0
0 0.405676 0
0 0.407324 0
0 0.408469 0
0.00573739 0.409308 0
0.0275425 0.410254 0
0.0501411 0.410956 0
0.0734417 0.411765 0
0.0973526 0.412955 0
0.121828 0.414389 0
0.146807 0.416022 0
0.17232 0.418463 0
0.198489 0.421866 0
0.258335 0.425849 0
0.313619 0.430121 0
0.364187 0.434745 0
0.414252 0.439002 0
0.465797 0.442206 0
0.518868 0.44477 0
0.569085 0.446372 0
0.615488 0.446662 0
0.659953 0.445838 0
0.701686 0.444358 0
0.739696 0.442405 0
0.775479 0.439933 0
0.810025 0.437736 0
0.843412 0.436042 0
0.876066 0.434638 0
0.908522 0.433509 0
0.940658 0.432868 0
0.972854 0.432242 0
1 0.429465 0
1 0.426246 0
0 0.437217 0
0 0.440208 0
0 0.441978 0
0 0.443091 0
0.00109865 0.443854 0
0.0229496 0.444984 0
0.0456092 0.445823 0
0.0689555 0.446799 0
0.0929274 0.44831 0
0.117464 0.45008 0
0.142504 0.452399 0
0.168017 0.45565 0
0.193957 0.45977 0
0.235889 0.464317 0
0.303853 0.469429 0
0.358022 0.474891 0
0.409812 0.480034 0
0.462638 0.484199 0
0.516777 0.487587 0
0.568856 0.490059 0
0.616297 0.49102 0
0.66154 0.490761 0
0.704128 0.489662 0
0.742901 0.487968 0
0.779004 0.485557 0
0.813825 0.483253 0
0.847456 0.481544 0
0.880186 0.480095 0
0.912734 0.47895 0
0.944854 0.47805 0
0.97702 0.477211 0
1 0.47451 0
1 0.471351 0
0 0.471336 0
0 0.474296 0
0 0.476005 0
0 0.477165 0
0 0.477943 0
0.0182956 0.479149 0
0.041001 0.480247 0
0.0644083 0.481407 0
0.088426 0.483162 0
0.113008 0.485405 0
0.138109 0.488273 0
0.163668 0.491997 0
0.18967 0.496681 0
0.219898 0.501869 0
0.28661 0.507591 0
0.350149 0.513939 0
0.404273 0.520211 0
0.458305 0.52546 0
0.513695 0.529763 0
0.567559 0.533165 0
0.616312 0.535042 0
0.662394 0.535424 0
0.706035 0.534966 0
0.745754 0.533669 0
0.782223 0.53138 0
0.817304 0.529152 0
0.851316 0.527474 0
0.884215 0.526192 0
0.916808 0.525109 0
0.94902 0.524163 0
0.981186 0.523339 0
1 0.520928 0
1 0.517861 0
0 0.504723 0
0 0.507698 0
0 0.509514 0
0 0.510719 0
0 0.511589 0
0.0135653 0.512795 0
0.0363165 0.514168 0
0.0597848 0.515587 0
0.0838483 0.517555 0
0.108492 0.520119 0
0.133623 0.523201 0
0.159243 0.527199 0
0.18529 0.532326 0
0.213596 0.53817 0
0.269703 0.544381 0
0.339956 0.551263 0
0.397498 0.55845 0
0.452735 0.56463 0
0.509285 0.569833 0
0.564492 0.574136 0
0.615167 0.577111 0
0.662135 0.578241 0
0.706554 0.578347 0
0.747341 0.577569 0
0.784512 0.575677 0
0.819913 0.573602 0
0.854246 0.572045 0
0.887373 0.570825 0
0.920104 0.569802 0
0.952316 0.568826 0
0.98407 0.567864 0
1 0.565835 0
1 0.563027 0
0 0.538293 0
0 0.541283 0
0 0.543114 0
0 0.544396 0
0 0.545281 0
0.00875868 0.546426 0
0.0315709 0.548074 0
0.0550851 0.549645 0
0.0792096 0.551766 0
0.103883 0.554559 0
0.129076 0.557931 0
0.154742 0.562142 0
0.180835 0.567514 0
0.207919 0.573953 0
0.252079 0.580621 0
0.325994 0.588067 0
0.389029 0.596033 0
0.446174 0.60325 0
0.503655 0.609277 0
0.560311 0.614511 0
0.612238 0.618326 0
0.660533 0.620356 0
0.705974 0.621073 0
0.747631 0.620844 0
0.785718 0.619471 0
0.821469 0.617594 0
0.856031 0.615991 0
0.888853 0.614481 0
0.920165 0.612741 0
0.951675 0.611276 0
0.983001 0.609903 0
1 0.607889 0
1 0.60528 0
0 0.571237 0
0 0.574182 0
0 0.575998 0
0 0.577279 0
0 0.57821 0
0.00389105 0.579141 0
0.0267643 0.581033 0
0.0503243 0.582788 0
0.0744945 0.584985 0
0.0992142 0.587991 0
0.124453 0.591562 0
0.150164 0.596017 0
0.176318 0.601648 0
0.202869 0.608331 0
0.235645 0.615595 0
0.305928 0.623453 0
0.379934 0.632166 0
0.438361 0.640238 0
0.496941 0.647227 0
0.554971 0.65333 0
0.608408 0.658076 0
0.657786 0.66099 0
0.704173 0.662409 0
0.746777 0.662852 0
0.785718 0.662135 0
0.821927 0.660624 0
0.855146 0.658732 0
0.886 0.656321 0
0.916884 0.654261 0
0.947982 0.652399 0
0.979278 0.650797 0
1 0.648844 0
1 0.646326 0
0 0.602777 0
0 0.605631 0
0 0.607401 0
0 0.608698 0
0 0.609613 0
0 0.610285 0
0.0218814 0.61236 0
0.0454871 0.614252 0
0.0697032 0.616541 0
0.0944839 0.619699 0
0.119768 0.623392 0
0.145525 0.627939 0
0.17171 0.633707 0
0.198306 0.64062 0
0.225299 0.648188 0
0.28513 0.656336 0
0.370031 0.665568 0
0.430152 0.674434 0
0.489525 0.68217 0
0.548699 0.689143 0
0.603357 0.694682 0
0.65359 0.69839 0
0.701274 0.700603 0
0.744747 0.701549 0
0.784466 0.701503 0
0.820539 0.700267 0
0.851347 0.697658 0
0.882033 0.695445 0
0.912947 0.693538 0
0.944076 0.691814 0
0.975418 0.690074 0
1 0.68835 0
1 0.685985 0
0 0.632975 0
0 0.635737 0
0 0.637507 0
0 0.638788 0
0 0.63975 0
0 0.640406 0
0.0169528 0.642252 0
0.0406043 0.644419 0
0.0648661 0.646799 0
0.0896773 0.649973 0
0.115007 0.653681 0
0.14081 0.658244 0
0.167041 0.663996 0
0.193683 0.671077 0
0.220706 0.678828 0
0.268849 0.687068 0
0.359731 0.696651 0
0.421256 0.706065 0
0.481254 0.714412 0
0.541451 0.722057 0
0.597482 0.728359 0
0.648524 0.732738 0
0.696941 0.735546 0
0.741497 0.737087 0
0.781796 0.737499 0
0.816526 0.736065 0
0.847257 0.733577 0
0.877989 0.731487 0
0.908934 0.729641 0
0.940108 0.727947 0
0.971481 0.72636 0
1 0.724743 0
1 0.722728 0
0 0.662379 0
0 0.665125 0
0 0.666896 0
0 0.668177 0
0 0.669139 0
0 0.669825 0
0.0119631 0.671412 0
0.0356451 0.673884 0
0.0599527 0.676432 0
0.0848249 0.679622 0
0.110185 0.683375 0
0.136034 0.687755 0
0.16231 0.693416 0
0.188998 0.700465 0
0.216068 0.708309 0
0.259709 0.716686 0
0.349142 0.726253 0
0.411917 0.736156 0
0.472541 0.745037 0
0.533196 0.75314 0
0.590845 0.760174 0
0.642451 0.765118 0
0.691386 0.768414 0
0.737255 0.77055 0
0.778042 0.771389 0
0.812467 0.770092 0
0.843076 0.767727 0
0.873838 0.765682 0
0.90483 0.763851 0
0.936034 0.762158 0
0.967453 0.760647 0
0.999069 0.759152 0
1 0.757229 0
0 0.691508 0
0 0.694224 0
0 0.695994 0
0 0.697292 0
0 0.698283 0
0 0.699016 0
0.00691234 0.700221 0
0.0306401 0.703044 0
0.0549935 0.705821 0
0.0798962 0.709102 0
0.105318 0.712932 0
0.131197 0.717296 0
0.157519 0.722683 0
0.184237 0.729549 0
0.211353 0.737408 0
0.250919 0.74583 0
0.333883 0.755337 0
0.403021 0.765484 0
0.463783 0.77467 0
0.524697 0.783078 0
0.583276 0.790631 0
0.636042 0.796231 0
0.68545 0.8 0
0.731899 0.802548 0
0.773877 0.803906 0
0.80824 0.802823 0
0.838819 0.800595 0
0.869627 0.798642 0
0.900649 0.796841 0
0.931899 0.795148 0
0.963348 0.793606 0
0.99501 0.792096 0
1 0.790356 0
0 0.720256 0
0 0.722988 0
0 0.724773 0
0 0.726101 0
0 0.727108 0
0 0.727871 0
0.00180056 0.728588 0
0.0255894 0.731823 0
0.0499733 0.734859 0
