assets/lut/basic.cube
TITLE "Generated by Resolve"
LUT_3D_SIZE 9
0.00750744 0.00776684 0.00888075
0.0713664 0.00222782 0.00354009
0.160967 0 0
0.276585 0 0
0.425635 0 0
0.591531 0 0
0.737713 0 0
0.867643 0 0
0.9906 0 0
0 0.0665751 0
0.0650034 0.066453 0
0.158663 0.063035 0
0.279316 0.0604562 0
0.434302 0.0536049 0
0.602304 0.0295415 0
0.747662 0.0203403 0
0.876921 0.0105745 0
0.999741 0.000289921 0
0 0.147494 0
0.0499275 0.149508 0
0.145739 0.14815 0
0.269459 0.147646 0
0.430915 0.144976 0
0.604715 0.123903 0
0.752392 0.106584 0
0.881987 0.0979934 0
1 0.0888228 0
0 0.24741 0
0.0277562 0.251423 0
0.118837 0.251408 0
0.255329 0.253651 0
0.424933 0.256916 0
0.608164 0.252705 0
0.758236 0.240314 0
0.889052 0.233799 0
1 0.224887 0
0 0.369329 0
0.0103151 0.375341 0
0.101686 0.378119 0
0.21886 0.384924 0
0.417639 0.399191 0
0.61442 0.40415 0
0.771832 0.396567 0
0.904189 0.3906 0
1 0.3832 0
0 0.504723 0
0 0.511589 0
0.0838483 0.517555 0
0.18529 0.532326 0
0.397498 0.55845 0
0.615167 0.577111 0
0.784512 0.575677 0
0.920104 0.569802 0
1 0.563027 0
0 0.632975 0
0 0.63975 0
0.0648661 0.646799 0
0.167041 0.663996 0
0.359731 0.696651 0
0.597482 0.728359 0
0.781796 0.737499 0
0.908934 0.729641 0
1 0.722728 0
0 0.748928 0
0 0.755978 0
0.0449073 0.763989 0
0.147738 0.781201 0
0.306371 0.812161 0
0.56701 0.848432 0
0.76376 0.864851 0
0.892073 0.859342 0
1 0.853376 0
0 0.868727 0
0 0.875975 0
0.0241093 0.883192 0
0.127535 0.902266 0
0.290288 0.928038 0
0.535576 0.961227 0
0.737987 0.980423 0
0.874098 0.978073 0
1 0.972061 0
0.00440986 0.00520333 0.0764477
0.0696574 0.000900282 0.0723583
0.159915 0 0.0648051
0.276692 0 0.0546578
0.4262 0 0.0352026
0.592447 0 0.0249943
0.738369 0 0.0142977
0.86804 0 0.00315862
0.991073 0 0
0 0.0663767 0.0679484
0.0646982 0.0664683 0.0682231
0.158846 0.0633555 0.0639963
0.280491 0.0608988 0.0559548
0.436164 0.0527962 0.0383917
0.604471 0.0300603 0.0300603
0.749325 0.0210117 0.0210269
0.878248 0.0113832 0.0113832
1 0.00122072 0.00122072
0 0.148104 0.0548257
0.0498054 0.150347 0.0570687
0.146487 0.149187 0.0548867
0.271321 0.148882 0.0484474
0.433448 0.145571 0.0306859
0.607279 0.122698 0.023682
0.754452 0.107668 0.0158694
0.883665 0.0991836 0.00738537
1 0.0901045 0
0 0.248859 0.0420081
0.0286564 0.253147 0.0455482
0.119783 0.2533 0.0440223
0.25745 0.255802 0.0382239
0.428092 0.25893 0.0189975
0.610971 0.254566 0.0130617
0.760494 0.242313 0.0062562
0.891005 0.236072 0
1 0.227237 0
0 0.371191 0.0252537
0.0115816 0.377584 0.029633
0.103044 0.380667 0.0283513
0.220615 0.387701 0.00926223
0.420798 0.40206 0.00486763
0.617441 0.406958 0
0.774411 0.399481 0
0.906645 0.393683 0
1 0.386191 0
0 0.506706 0
0 0.51368 0
0.0854963 0.519997 0
0.187015 0.535256 0
0.401099 0.561761 0
0.618601 0.580377 0
0.787366 0.579004 0
0.922805 0.573327 0
1 0.56643 0
0 0.634989 0
0 0.641779 0
0.0667582 0.64918 0
0.169009 0.666819 0
0.364233 0.699901 0
0.60145 0.731502 0
0.784802 0.740429 0
0.911162 0.732464 0
1 0.725643 0
0 0.751064 0
0 0.75819 0
0.0470283 0.766583 0
0.149935 0.784131 0
0.315251 0.815549 0
0.571603 0.85156 0
0.767086 0.867613 0
0.894499 0.861936 0
1 0.856046 0
0 0.870939 0
0 0.878248 0
0.0264439 0.886 0
0.129931 0.905089 0
0.298039 0.931289 0
0.540429 0.964401 0
0.74168 0.983261 0
0.876707 0.980652 0
1 0.974716 0
0.000122072 0.00149538 0.17142
0.0664225 0 0.167468
0.156634 0 0.159838
0.274403 0 0.150057
0.424338 0 0.131456
0.592889 0 0.115053
0.739605 0 0.10454
0.869566 0 0.0935836
0.992538 0 0.0822003
0 0.0645151 0.163912
0.0625772 0.0647746 0.164355
0.156603 0.0621958 0.160098
0.279179 0.0597543 0.152651
0.434897 0.0442359 0.134707
0.605631 0.0289006 0.120699
0.751202 0.0199893 0.111788
0.880201 0.0104829 0.102281
1 0.000442512 0.0922408
0 0.147585 0.150332
0.0443122 0.149966 0.152758
0.144274 0.148852 0.150652
0.270863 0.148806 0.145388
0.433143 0.142229 0.126421
0.608988 0.115053 0.114748
0.756924 0.107042 0.107042
0.886137 0.0986648 0.0986648
1 0.0896925 0.0896925
0 0.249775 0.138109
0.0278477 0.254322 0.142107
0.118578 0.254627 0.140734
0.257404 0.257237 0.135393
0.428992 0.258717 0.114534
0.613092 0.253178 0.104479
0.762844 0.239734 0.0977646
0.893263 0.23389 0.0903029
1 0.225696 0.0822156
0 0.374212 0.12311
0.0111238 0.380804 0.127947
0.102693 0.384192 0.12726
0.209812 0.391562 0.117266
0.423011 0.405219 0.0964828
0.621088 0.410025 0.0915236
0.777859 0.402106 0.0856489
0.909911 0.396628 0.078996
1 0.388998 0.0716716
0 0.510689 0.0970779
0 0.518013 0.103136
0.0854353 0.524392 0.0992294
0.18703 0.539559 0.0838941
0.402747 0.566918 0.0808423
0.622721 0.586084 0.0766308
0.791196 0.584237 0.0714885
0.925277 0.578119 0.0655375
1 0.570855 0.0588998
0 0.637217 0.0595102
0 0.644236 0.065568
0.0669566 0.651957 0.0669566
0.169268 0.670207 0.0661173
0.364828 0.703716 0.0637675
0.604868 0.735805 0.0602426
0.787213 0.744274 0.0557412
0.911681 0.735515 0.0504158
1 0.728664 0.0444038
0 0.752392 0.0386511
0 0.759731 0.0453956
0.0474403 0.768292 0.0474403
0.150408 0.786084 0.0472572
0.313695 0.817807 0.0455329
0.573877 0.853986 0.0426032
0.769421 0.869856 0.0386969
0.895201 0.863584 0.0339513
1 0.857572 0.0284886
0 0.8719 0.0305333
0 0.87953 0.0439765
0.0270542 0.887098 0.0386511
0.130602 0.905669 0.0283055
0.289204 0.931899 0.0262913
0.540566 0.964996 0.0239261
0.742061 0.983764 0.0205539
0.877592 0.981262 0.0163424
1 0.975402 0.0113832
0 0 0.293614
0.0579995 0 0.289754
0.151873 0 0.282658
0.270527 0 0.274464
0.42211 0 0.263249
0.591806 0 0.251865
0.739376 0 0.237476
0.869718 0 0.22385
0.992828 0 0.209079
0 0.0578317 0.287709
0.0526894 0.059678 0.288518
0.152041 0.0577096 0.284825
0.276265 0.0557565 0.279622
0.433524 0.0389868 0.270863
0.605447 0.0269322 0.26154
0.751507 0.0181582 0.249393
0.880766 0.00877394 0.237781
1 0 0.224414
0 0.14519 0.275212
0.0406348 0.147799 0.278614
0.134966 0.147601 0.276143
0.267918 0.147616 0.272679
0.432181 0.140719 0.265354
0.608606 0.113191 0.255161
0.75729 0.105608 0.244007
0.88658 0.097322 0.233295
1 0.0884413 0.220737
0 0.251423 0.263203
0.0262303 0.256046 0.268254
0.116899 0.256779 0.267643
0.251881 0.258991 0.263966
0.427726 0.259953 0.257145
0.609918 0.246311 0.242649
0.758953 0.219516 0.226062
0.889281 0.20856 0.212833
1 0.201755 0.200061
0 0.378851 0.249424
0.00985733 0.385885 0.256153
0.101518 0.389075 0.256199
0.20238 0.396429 0.251957
0.41857 0.406516 0.24155
0.616114 0.406088 0.217105
0.773114 0.395865 0.195087
0.905592 0.390295 0.181903
1 0.383429 0.174121
0 0.516945 0.22887
0 0.524788 0.236698
0.0845502 0.531197 0.237873
0.186221 0.544625 0.231785
0.392706 0.566247 0.201968
0.617945 0.584787 0.17911
0.78854 0.583368 0.174029
0.923858 0.577722 0.168139
1 0.57116 0.161578
0 0.642878 0.20296
0 0.650446 0.212558
0.0663005 0.657725 0.214008
0.168688 0.673411 0.203128
0.344762 0.703334 0.168978
0.600443 0.736019 0.162936
0.78613 0.745602 0.158495
0.911345 0.737285 0.153246
1 0.7308 0.14728
0 0.757794 0.183215
0 0.765896 0.194995
0.047013 0.773938 0.19736
0.150042 0.789425 0.190707
0.293019 0.817014 0.155596
0.568139 0.853269 0.145495
0.766644 0.869856 0.141649
0.895064 0.864683 0.136965
1 0.858686 0.131548
0 0.879713 0.182055
0 0.88777 0.192447
0.0268254 0.895293 0.195987
0.130434 0.912215 0.194324
0.256916 0.933471 0.180026
0.530526 0.961349 0.134813
0.73431 0.979568 0.12369
0.877623 0.979065 0.119524
1 0.973007 0.114626
0 0 0.439841
0.0501411 0 0.43682
0.136477 0 0.430091
0.267491 0 0.424689
0.422766 0 0.418723
0.593194 0 0.411078
0.741405 0 0.399222
0.871992 0 0.386648
0.995239 0 0.371542
0 0.0482795 0.436377
0.0487526 0.0487526 0.43772
0.138048 0.0449226 0.434394
0.274128 0.0392309 0.43212
0.435004 0.0322881 0.428656
0.60737 0.0243992 0.422904
0.753948 0.0157626 0.412894
0.883391 0.00650034 0.401907
1 0 0.388022
0 0.127565 0.42504
0.0380255 0.129824 0.429068
0.127886 0.12929 0.428031
0.264408 0.136141 0.42797
0.431403 0.123384 0.42562
0.610666 0.11107 0.420951
0.759823 0.103593 0.412146
0.889204 0.0953994 0.401907
1 0.0866102 0.389212
0 0.245487 0.416861
0.024033 0.250889 0.423224
0.114809 0.253285 0.424811
0.236683 0.260151 0.424094
0.425452 0.260517 0.423102
0.61033 0.246494 0.415366
0.760296 0.219425 0.404166
0.890593 0.21033 0.393912
1 0.20325 0.382239
0 0.384314 0.41004
0.00801099 0.391379 0.417746
0.0997635 0.395987 0.421286
0.200717 0.403876 0.421103
0.411337 0.41294 0.417166
0.614588 0.412055 0.409842
0.772107 0.400061 0.398199
0.90425 0.393515 0.388174
1 0.385977 0.37705
0 0.527581 0.39472
0 0.535744 0.404013
0.0830701 0.542367 0.407935
0.184817 0.55581 0.40853
0.372213 0.576043 0.401999
0.609232 0.589242 0.392706
0.77995 0.583993 0.379446
0.915526 0.576852 0.368688
1 0.57023 0.358541
0 0.654978 0.372244
0 0.662913 0.38294
0.0650645 0.669963 0.386648
0.167529 0.685802 0.388174
0.292653 0.711833 0.379873
0.586023 0.736843 0.36669
0.772503 0.741787 0.349493
0.91043 0.735698 0.332082
1 0.728359 0.319295
0 0.769512 0.353094
0 0.777905 0.365545
0.0460059 0.785794 0.37052
0.149081 0.801373 0.373098
0.260426 0.826352 0.366598
0.552209 0.854704 0.354131
0.751766 0.865721 0.33637
0.894347 0.862028 0.318883
1 0.855039 0.300267
0 0.88983 0.344686
0 0.8981 0.355947
0.0260014 0.905562 0.361242
0.129671 0.922698 0.365087
0.239902 0.943587 0.361379
0.518532 0.969253 0.35378
0.724712 0.982879 0.342931
0.876997 0.982635 0.331746
1 0.976287 0.322988
0 0 0.588327
0.0456092 0 0.586267
0.131411 0 0.581781
0.259403 0 0.578012
0.421744 0 0.576532
0.594064 0 0.57229
0.743954 0 0.563699
0.874784 0 0.552132
0.998306 0 0.538415
0 0.0444343 0.587976
0.0451209 0.0451209 0.589731
0.133288 0.0414893 0.588037
0.267323 0.0359655 0.586938
0.43473 0.0291752 0.587762
0.60882 0.0214237 0.58526
0.756512 0.0129091 0.577081
0.88629 0.00376898 0.56701
1 0 0.554192
0 0.124361 0.581231
0.0349584 0.126757 0.585351
0.124651 0.124651 0.585748
0.258717 0.120531 0.586587
0.431769 0.115038 0.589181
0.612467 0.108492 0.587701
0.762631 0.101122 0.580453
0.892348 0.0930343 0.571221
1 0.0843366 0.559457
0 0.21677 0.573709
0.0213931 0.222889 0.579904
0.112261 0.23003 0.582589
0.220661 0.254994 0.587015
0.421683 0.255756 0.590982
0.60911 0.238895 0.587732
0.761181 0.209216 0.579004
0.892027 0.199802 0.56994
1 0.192737 0.558846
0 0.383078 0.577493
0.00570687 0.39057 0.585046
0.0975357 0.394736 0.58912
0.198581 0.404486 0.592706
0.401266 0.415808 0.59292
0.610971 0.414969 0.591409
0.770733 0.403021 0.582681
0.903395 0.396399 0.573617
1 0.389746 0.56376
0 0.534081 0.57084
0 0.542321 0.579583
0.081117 0.548653 0.58381
0.18294 0.562844 0.588663
0.335668 0.583124 0.58648
0.601022 0.596201 0.585901
0.775265 0.59118 0.577996
0.911879 0.584192 0.569177
1 0.577859 0.560052
0 0.665019 0.552529
0 0.672694 0.562249
0.0633707 0.679713 0.567178
0.165896 0.695705 0.572473
0.275044 0.722026 0.571542
0.573938 0.746395 0.568994
0.76524 0.75172 0.56199
0.907881 0.747127 0.553048
1 0.740505 0.543404
0 0.779873 0.532509
0 0.787686 0.543618
0.0445106 0.795636 0.550027
0.147662 0.811307 0.555566
0.257404 0.83682 0.555917
0.538125 0.864271 0.552819
0.743801 0.875547 0.546212
0.892821 0.874052 0.537575
1 0.867323 0.527443
0 0.899107 0.517586
0 0.906996 0.528344
0.0247196 0.914595 0.534325
0.128435 0.931685 0.540536
0.238712 0.952865 0.5411
0.504448 0.977676 0.539132
0.717433 0.991379 0.535409
0.873457 0.992081 0.528328
1 0.986419 0.520165
0 0 0.726406
0.0408026 0 0.725155
0.126909 0 0.722072
0.248447 0 0.719722
0.41799 0 0.722316
0.593378 0 0.721874
0.744961 0 0.716075
0.876722 0 0.70753
1 0 0.695628
0 0.0402686 0.728618
0.0411536 0.0411536 0.730587
0.129503 0.037705 0.729976
0.258915 0.0323339 0.729702
0.431647 0.0256962 0.7337
0.608484 0.0180819 0.734279
0.757916 0.00970474 0.72871
0.888395 0.000671397 0.720546
1 0 0.709636
0 0.12079 0.725475
0.0315251 0.123323 0.729412
0.121355 0.12137 0.730694
0.249073 0.117357 0.73225
0.428779 0.111986 0.738598
0.612345 0.105547 0.740398
0.764477 0.0982681 0.735683
0.894896 0.0902724 0.728237
1 0.0816815 0.718074
0 0.209827 0.721294
0.0183719 0.213993 0.726696
0.109361 0.21384 0.729259
0.212238 0.247898 0.735195
0.416724 0.251469 0.742611
0.606806 0.230579 0.743603
0.761517 0.194369 0.737957
0.893309 0.192447 0.730907
1 0.1785 0.721508
0 0.374624 0.728222
0.00302129 0.382223 0.735012
0.0949416 0.387671 0.739513
0.196063 0.399924 0.745876
0.39089 0.413901 0.749538
0.605722 0.412909 0.75285
0.768246 0.400946 0.747173
0.901915 0.393957 0.739666
1 0.388144 0.731563
0 0.533959 0.73019
0 0.541909 0.73756
0.0787976 0.547875 0.742367
0.180697 0.561913 0.748714
0.293706 0.583185 0.750088
0.592325 0.59617 0.754726
0.770504 0.591653 0.750744
0.908446 0.584634 0.743679
1 0.578836 0.735805
0 0.668147 0.717296
0 0.675502 0.725719
0.0612802 0.68275 0.730694
0.163867 0.69839 0.737865
0.27306 0.72517 0.741146
0.56199 0.749569 0.743313
0.758541 0.755459 0.741146
0.902998 0.751278 0.734783
1 0.745602 0.727382
0 0.783963 0.698451
0 0.791363 0.707301
0.042649 0.799481 0.713817
0.145846 0.814939 0.720729
0.255634 0.840833 0.725093
0.523613 0.868376 0.726345
0.736507 0.880568 0.725658
0.887922 0.879667 0.719982
1 0.874342 0.71252
0 0.903181 0.681315
0 0.910933 0.690761
0.0230411 0.918227 0.696056
0.126818 0.935637 0.703853
0.237156 0.957107 0.707225
0.490196 0.981826 0.708507
0.710216 0.996002 0.709407
0.868589 0.997269 0.704982
1 0.992828 0.698344
0 0 0.864759
0.0357519 0 0.864042
0.122133 0 0.861463
0.245716 0 0.859709
0.416953 0 0.863096
0.595987 0 0.863615
0.748699 0 0.858183
0.879469 0 0.849699
1 0 0.839139
0 0.0358129 0.86717
0.0368963 0.0369116 0.869596
0.125414 0.0336309 0.869429
0.256458 0.0287633 0.869947
0.430961 0.0219272 0.874907
0.610941 0.014435 0.875914
0.761822 0.0061799 0.870649
0.892027 0 0.862882
1 0 0.853132
0 0.116915 0.863203
0.0278019 0.119585 0.867277
0.117754 0.117769 0.868986
0.23473 0.143954 0.872648
0.426108 0.135531 0.879713
0.610864 0.105608 0.881392
0.765179 0.0950942 0.877546
0.896284 0.0872053 0.870848
1 0.078706 0.861585
0 0.21268 0.857221
0.0150454 0.223224 0.862913
0.106126 0.236942 0.867445
0.20676 0.261036 0.875196
0.412116 0.268986 0.88249
0.606943 0.257816 0.885374
0.7626 0.233341 0.880034
0.894697 0.222827 0.873549
1 0.211475 0.865385
0 0.376745 0.86421
1.5259e-05 0.385519 0.870787
0.0920272 0.391516 0.875944
0.193225 0.403616 0.882765
0.381155 0.418601 0.8869
0.601541 0.418448 0.892348
0.766583 0.406394 0.888533
0.90135 0.398245 0.882338
1 0.391821 0.875151
0 0.531243 0.867521
0 0.539742 0.874586
0.0761425 0.54612 0.879179
0.178119 0.559777 0.885649
0.287648 0.580987 0.888777
0.585061 0.593912 0.89514
0.766171 0.589731 0.893431
0.905486 0.582559 0.887938
1 0.576638 0.881315
0 0.666667 0.857801
0 0.674037 0.864851
0.0588693 0.680995 0.869581
0.161517 0.696376 0.877211
0.270771 0.723049 0.882414
0.553216 0.747448 0.886549
0.753246 0.753826 0.887327
0.899489 0.749767 0.882795
1 0.74432 0.876646
0 0.782895 0.840101
0 0.790417 0.847761
0.0404364 0.798505 0.853956
0.143709 0.813886 0.86096
0.253544 0.839582 0.866987
0.513008 0.867247 0.87013
0.730785 0.880201 0.872679
0.884337 0.879789 0.869276
1 0.875059 0.863615
0 0.902724 0.823713
0 0.910445 0.831724
0.0210269 0.917662 0.836927
0.124849 0.934813 0.844434
0.235248 0.956405 0.849332
0.478828 0.981018 0.851789
0.70425 0.995941 0.855314
0.864958 0.997726 0.85301
1 0.993973 0.848066
0 0 0.992782
0.0304875 0 0.992508
0.117144 0 0.990921
0.238834 0 0.990387
0.411429 0 0.995651
0.593423 0 0.998154
0.748745 0 0.994339
0.880964 0 0.988067
1 0 0.978927
0 0.0311284 0.995605
0.0323949 0.0323949 0.997971
0.12108 0.0292821 0.998352
0.249912 0.0247044 0.999649
0.425147 0.0178683 1
0.607721 0.0105135 1
0.761166 0.00236515 1
0.892821 0 0.99968
1 0 0.991394
0 0.112779 0.993317
0.0237888 0.115587 0.997116
0.113878 0.113878 0.99913
0.222507 0.147021 1
0.421103 0.147936 1
0.607813 0.127275 1
0.76257 0.091722 1
0.894301 0.0838636 1
1 0.0827497 0.997482
0 0.224323 0.989181
0.011429 0.233036 0.994675
0.102617 0.244724 1
0.203021 0.263874 1
0.406195 0.275669 1
0.604746 0.269734 1
0.76318 0.254582 1
0.896864 0.249012 1
1 0.244953 1
0 0.379385 0.996307
0 0.38706 1
0.0888228 0.394736 1
0.190097 0.406302 1
0.371984 0.422156 1
0.597345 0.424628 1
0.765133 0.415229 1
0.901335 0.408652 1
1 0.404242 1
0 0.529641 0.998184
0 0.537163 1
0.0731975 0.544915 1
0.17525 0.559091 1
0.284337 0.579934 1
0.57882 0.5935 1
0.762371 0.590707 1
0.903105 0.583658 1
1 0.578332 1
0 0.664286 0.989746
0 0.671702 0.996399
0.0561532 0.679438 1
0.158877 0.694438 1
0.268193 0.720165 1
0.546365 0.744305 1
0.748516 0.75111 1
0.896269 0.747265 1
1 0.741909 1
0 0.781582 0.973312
0 0.789425 0.980835
0.0379339 0.796582 0.985656
0.141268 0.812345 0.993439
0.251164 0.837171 0.999252
0.505486 0.864317 1
0.725628 0.877653 1
0.881148 0.877607 1
1 0.87277 0.998154
0 0.903197 0.95787
0 0.910903 0.965576
0.0187228 0.917098 0.970428
0.122591 0.933974 0.977554
0.233036 0.954116 0.981903
0.469856 0.978256 0.98471
0.698482 0.993622 0.98909
0.861326 0.995804 0.987457
0.998138 0.992416 0.983124
