assets/lut/basic.cube
TITLE "Generated by Resolve"
LUT_3D_SIZE 5
0.00750744 0.00776684 0.00888075
0.160967 0 0
0.425635 0 0
0.737713 0 0
0.9906 0 0
0 0.147494 0
0.145739 0.14815 0
0.430915 0.144976 0
0.752392 0.106584 0
1 0.0888228 0
0 0.369329 0
0.101686 0.378119 0
0.417639 0.399191 0
0.771832 0.396567 0
1 0.3832 0
0 0.632975 0
0.0648661 0.646799 0
0.359731 0.696651 0
0.781796 0.737499 0
1 0.722728 0
0 0.868727 0
0.0241093 0.883192 0
0.290288 0.928038 0
0.737987 0.980423 0
1 0.972061 0
0.000122072 0.00149538 0.17142
0.156634 0 0.159838
0.424338 0 0.131456
0.739605 0 0.10454
0.992538 0 0.0822003
0 0.147585 0.150332
0.144274 0.148852 0.150652
0.433143 0.142229 0.126421
0.756924 0.107042 0.107042
1 0.0896925 0.0896925
0 0.374212 0.12311
0.102693 0.384192 0.12726
0.423011 0.405219 0.0964828
0.777859 0.402106 0.0856489
1 0.388998 0.0716716
0 0.637217 0.0595102
0.0669566 0.651957 0.0669566
0.364828 0.703716 0.0637675
0.787213 0.744274 0.0557412
1 0.728664 0.0444038
0 0.8719 0.0305333
0.0270542 0.887098 0.0386511
0.289204 0.931899 0.0262913
0.742061 0.983764 0.0205539
1 0.975402 0.0113832
0 0 0.439841
0.136477 0 0.430091
0.422766 0 0.418723
0.741405 0 0.399222
0.995239 0 0.371542
0 0.127565 0.42504
0.127886 0.12929 0.428031
0.431403 0.123384 0.42562
0.759823 0.103593 0.412146
1 0.0866102 0.389212
0 0.384314 0.41004
0.0997635 0.395987 0.421286
0.411337 0.41294 0.417166
0.772107 0.400061 0.398199
1 0.385977 0.37705
0 0.654978 0.372244
0.0650645 0.669963 0.386648
0.292653 0.711833 0.379873
0.772503 0.741787 0.349493
1 0.728359 0.319295
0 0.88983 0.344686
0.0260014 0.905562 0.361242
0.239902 0.943587 0.361379
0.724712 0.982879 0.342931
1 0.976287 0.322988
0 0 0.726406
0.126909 0 0.722072
0.41799 0 0.722316
0.744961 0 0.716075
1 0 0.695628
0 0.12079 0.725475
0.121355 0.12137 0.730694
0.428779 0.111986 0.738598
0.764477 0.0982681 0.735683
1 0.0816815 0.718074
0 0.374624 0.728222
0.0949416 0.387671 0.739513
0.39089 0.413901 0.749538
0.768246 0.400946 0.747173
1 0.388144 0.731563
0 0.668147 0.717296
0.0612802 0.68275 0.730694
0.27306 0.72517 0.741146
0.758541 0.755459 0.741146
1 0.745602 0.727382
0 0.903181 0.681315
0.0230411 0.918227 0.696056
0.237156 0.957107 0.707225
0.710216 0.996002 0.709407
1 0.992828 0.698344
0 0 0.992782
0.117144 0 0.990921
0.411429 0 0.995651
0.748745 0 0.994339
1 0 0.978927
0 0.112779 0.993317
0.113878 0.113878 0.99913
0.421103 0.147936 1
0.76257 0.091722 1
1 0.0827497 0.997482
0 0.379385 0.996307
0.0888228 0.394736 1
0.371984 0.422156 1
0.765133 0.415229 1
1 0.404242 1
0 0.664286 0.989746
0.0561532 0.679438 1
0.268193 0.720165 1
0.748516 0.75111 1
1 0.741909 1
0 0.903197 0.95787
0.0187228 0.917098 0.970428
0.233036 0.954116 0.981903
0.698482 0.993622 0.98909
0.998138 0.992416 0.983124
